; G-Code generated by Simplify3D(R) Version 3.1.1
; Apr 27, 2017 at 10:16:04 PM
; Settings Summary
;   processName,Process1
;   applyToModels,100mm cylinder
;   profileName,MakerBot Replicator 2 (modified)
;   profileVersion,2015-05-01 08:00:00
;   baseProfile,
;   printMaterial,PLA
;   printQuality,Fast
;   printExtruders,
;   extruderName,Primary Extruder
;   extruderToolheadNumber,0
;   extruderDiameter,0.4
;   extruderAutoWidth,0
;   extruderWidth,0.8
;   extrusionMultiplier,0.9
;   extruderUseRetract,1
;   extruderRetractionDistance,1
;   extruderExtraRestartDistance,0
;   extruderRetractionZLift,0
;   extruderRetractionSpeed,1200
;   extruderUseCoasting,0
;   extruderCoastingDistance,0.2
;   extruderUseWipe,0
;   extruderWipeDistance,5
;   primaryExtruder,0
;   layerHeight,0.3
;   topSolidLayers,0
;   bottomSolidLayers,0
;   perimeterOutlines,1
;   printPerimetersInsideOut,1
;   startPointOption,1
;   startPointOriginX,0
;   startPointOriginY,0
;   startPointOriginZ,300
;   sequentialIslands,0
;   spiralVaseMode,1
;   firstLayerHeightPercentage,90
;   firstLayerWidthPercentage,100
;   firstLayerUnderspeed,0.5
;   useRaft,0
;   raftExtruder,0
;   raftLayers,3
;   raftOffset,3
;   raftSeparationDistance,0.14
;   raftInfill,85
;   disableRaftBaseLayers,0
;   useSkirt,1
;   skirtExtruder,0
;   skirtLayers,1
;   skirtOutlines,2
;   skirtOffset,4
;   usePrimePillar,0
;   primePillarExtruder,999
;   primePillarWidth,12
;   primePillarLocation,7
;   primePillarSpeedMultiplier,1
;   useOozeShield,0
;   oozeShieldExtruder,999
;   oozeShieldOffset,2
;   oozeShieldOutlines,1
;   oozeShieldSidewallShape,1
;   oozeShieldSidewallAngle,30
;   oozeShieldSpeedMultiplier,1
;   infillExtruder,0
;   internalInfillPattern,Full Honeycomb
;   externalInfillPattern,Rectilinear
;   infillPercentage,0
;   outlineOverlapPercentage,20
;   infillExtrusionWidthPercentage,100
;   minInfillLength,5
;   infillLayerInterval,1
;   infillAngles,0,120,-120
;   overlapInfillAngles,0
;   generateSupport,0
;   supportExtruder,0
;   supportInfillPercentage,25
;   supportExtraInflation,0
;   denseSupportLayers,0
;   denseSupportInfillPercentage,70
;   supportLayerInterval,1
;   supportHorizontalPartOffset,0.3
;   supportUpperSeparationLayers,1
;   supportLowerSeparationLayers,1
;   supportType,0
;   supportGridSpacing,4
;   maxOverhangAngle,45
;   supportAngles,0
;   temperatureName,Primary Extruder
;   temperatureNumber,0
;   temperatureSetpointCount,1
;   temperatureSetpointLayers,1
;   temperatureSetpointTemperatures,230
;   temperatureStabilizeAtStartup,0
;   temperatureHeatedBed,0
;   temperatureRelayBetweenLayers,0
;   temperatureRelayBetweenLoops,0
;   fanLayers,1,2
;   fanSpeeds,0,100
;   blipFanToFullPower,0
;   adjustSpeedForCooling,1
;   minSpeedLayerTime,15
;   minCoolingSpeedSlowdown,20
;   increaseFanForCooling,0
;   minFanLayerTime,45
;   maxCoolingFanSpeed,100
;   increaseFanForBridging,0
;   bridgingFanSpeed,100
;   use5D,1
;   relativeEdistances,1
;   allowEaxisZeroing,0
;   independentExtruderAxes,1
;   includeM10123,0
;   stickySupport,1
;   applyToolheadOffsets,0
;   gcodeXoffset,0
;   gcodeYoffset,0
;   gcodeZoffset,0
;   overrideMachineDefinition,1
;   machineTypeOverride,0
;   strokeXoverride,280
;   strokeYoverride,150
;   strokeZoverride,150
;   originOffsetXoverride,140
;   originOffsetYoverride,75
;   originOffsetZoverride,0
;   homeXdirOverride,1
;   homeYdirOverride,1
;   homeZdirOverride,-1
;   flipXoverride,1
;   flipYoverride,-1
;   flipZoverride,1
;   toolheadOffsets,0,0|0,0|0,0|0,0|0,0|0,0
;   overrideFirmwareConfiguration,1
;   firmwareTypeOverride,MakerBot/Sailfish Firmware
;   GPXconfigOverride,r2
;   baudRateOverride,115200
;   overridePrinterModels,1
;   printerModelsOverride,MakerBot_Replicator2.stl
;   startingGcode,; **** Replicator 2 start.gcode ****,M73 P0 ; enable build progress,G162 X Y F3000 ; home XY maximum,G161 Z F1200 ; home Z minimum,G92 Z-5 ; set Z to -5,G1 Z0 ; move Z to 0,G161 Z F100 ; home Z slowly,M132 X Y Z A B ; recall home offsets,G1 X-145 Y-75 Z30 F9000 ; move to wait position off table,G130 X20 Y20 Z20 A20 B20 ; lower stepper Vrefs while heating,M126 S[fan_speed_pwm],M104 S[extruder0_temperature] T0,M133 T0 ; stabilize extruder temperature,G130 X127 Y127 Z40 A127 B127 ; default stepper Vrefs,G92 A0 ; zero extruder,G1 Z0.4 ; position nozzle,G1 E25 F300 ; purge nozzle,G1 X-140 Y-70 Z0.15 F1200 ; slow wipe,G1 X-135 Y-65 Z0.5 F1200 ; lift,G92 A0 ; zero extruder,M73 P1 ;@body (notify GPX body has started),; **** end of start.gcode ****
;   layerChangeGcode,
;   retractionGcode,
;   toolChangeGcode,
;   endingGcode,; **** Replicator 2 end.gcode ****,M73 P100 ; end build progress,G1 Z155 F1000 ; send Z axis to bottom of machine,M104 S0 T0 ; cool down extruder,M127 ; stop blower fan,G162 X Y F3000 ; home XY maximum,M18 ; disable stepper,M72 P1 ; play Ta-Da song,; **** end of end.gcode ****
;   exportFileFormat,x3g
;   celebration,0
;   celebrationSong,Random Song
;   postProcessing,
;   defaultSpeed,4800
;   outlineUnderspeed,0.5
;   solidInfillUnderspeed,0.8
;   supportUnderspeed,0.8
;   rapidXYspeed,9000
;   rapidZspeed,1200
;   minBridgingArea,50
;   bridgingExtraInflation,0
;   bridgingExtrusionMultiplier,1
;   bridgingSpeedMultiplier,0.8
;   filamentDiameter,1.75
;   filamentPricePerKg,46
;   filamentDensity,1.25
;   useMinPrintHeight,0
;   minPrintHeight,0
;   useMaxPrintHeight,0
;   maxPrintHeight,0
;   useDiaphragm,0
;   diaphragmLayerInterval,20
;   robustSlicing,1
;   mergeAllIntoSolid,0
;   onlyRetractWhenCrossingOutline,1
;   retractBetweenLayers,1
;   useRetractionMinTravel,0
;   retractionMinTravel,3
;   retractWhileWiping,0
;   onlyWipeOutlines,1
;   avoidCrossingOutline,0
;   maxMovementDetourFactor,3
;   toolChangeRetractionDistance,12
;   toolChangeExtraRestartDistance,-0.5
;   toolChangeRetractionSpeed,600
;   allowThinWallGapFill,1
;   thinWallAllowedOverlapPercentage,10
;   horizontalSizeCompensation,0
G90
M83
; **** Replicator 2 start.gcode ****
M73 P0 ; enable build progress
G162 X Y F3000 ; home XY maximum
G161 Z F1200 ; home Z minimum
G92 Z-5 ; set Z to -5
G1 Z0 ; move Z to 0
G161 Z F100 ; home Z slowly
M132 X Y Z A B ; recall home offsets
G1 X-145 Y-75 Z30 F9000 ; move to wait position off table
G130 X20 Y20 Z20 A20 B20 ; lower stepper Vrefs while heating
M127
M104 S230 T0
M133 T0 ; stabilize extruder temperature
G130 X127 Y127 Z40 A127 B127 ; default stepper Vrefs
G92 A0 ; zero extruder
G1 Z0.4 ; position nozzle
G1 E25 F300 ; purge nozzle
G1 X-140 Y-70 Z0.15 F1200 ; slow wipe
G1 X-135 Y-65 Z0.5 F1200 ; lift
G92 A0 ; zero extruder
M73 P1 ;@body (notify GPX body has started)
; **** end of start.gcode ****
G1 E-1.0000 F1200
G1 Z0.270 F1200
; layer 1, Z = 0.27
M135 T0
; tool H0.300 W0.800
; skirt
G1 X30.658 Y45.903 F9000
G1 E1.0000 F360
G1 X30.541 Y45.982 E0.0127 F2400
G1 X30.525 Y45.992 E0.0017
G1 X27.873 Y47.646 E0.2807
G1 X27.857 Y47.655 E0.0017
G1 X27.736 Y47.726 E0.0127
G1 X27.720 Y47.735 E0.0016
G1 X24.833 Y49.299 E0.2948
G1 X24.816 Y49.307 E0.0017
G1 X24.688 Y49.371 E0.0129
G1 X24.671 Y49.380 E0.0017
G1 X21.750 Y50.734 E0.2892
G1 X21.733 Y50.742 E0.0017
G1 X21.603 Y50.797 E0.0127
G1 X21.585 Y50.804 E0.0017
G1 X18.587 Y51.976 E0.2891
G1 X18.570 Y51.983 E0.0016
G1 X18.438 Y52.030 E0.0126
G1 X18.421 Y52.036 E0.0016
G1 X15.417 Y53.003 E0.2834
G1 X15.399 Y53.009 E0.0016
G1 X15.264 Y53.048 E0.0127
G1 X15.246 Y53.053 E0.0017
G1 X12.096 Y53.858 E0.2920
G1 X12.078 Y53.862 E0.0017
G1 X11.939 Y53.893 E0.0128
G1 X11.921 Y53.897 E0.0017
G1 X8.758 Y54.501 E0.2891
G1 X8.740 Y54.504 E0.0016
G1 X8.602 Y54.526 E0.0126
G1 X8.584 Y54.528 E0.0016
G1 X5.453 Y54.930 E0.2834
G1 X5.435 Y54.932 E0.0017
G1 X5.295 Y54.946 E0.0127
G1 X5.277 Y54.947 E0.0016
G1 X2.033 Y55.162 E0.2919
G1 X2.015 Y55.163 E0.0016
G1 X1.875 Y55.168 E0.0126
G1 X1.857 Y55.169 E0.0016
G1 X-1.267 Y55.185 E0.2805
G1 X-1.285 Y55.185 E0.0016
G1 X-1.423 Y55.182 E0.0125
G1 X-1.442 Y55.181 E0.0016
G1 X-4.623 Y55.006 E0.2862
G1 X-4.642 Y55.005 E0.0017
G1 X-4.782 Y54.993 E0.0127
G1 X-4.800 Y54.991 E0.0016
G1 X-7.998 Y54.617 E0.2891
G1 X-8.016 Y54.615 E0.0016
G1 X-8.156 Y54.594 E0.0127
G1 X-8.174 Y54.591 E0.0017
G1 X-11.311 Y54.028 E0.2863
G1 X-11.329 Y54.025 E0.0017
G1 X-11.467 Y53.996 E0.0127
G1 X-11.485 Y53.992 E0.0016
G1 X-14.613 Y53.230 E0.2891
G1 X-14.630 Y53.226 E0.0016
G1 X-14.765 Y53.189 E0.0126
G1 X-14.783 Y53.183 E0.0016
G1 X-17.798 Y52.252 E0.2834
G1 X-17.815 Y52.246 E0.0016
G1 X-17.947 Y52.201 E0.0125
G1 X-17.964 Y52.195 E0.0016
G1 X-20.947 Y51.071 E0.2863
G1 X-20.964 Y51.064 E0.0017
G1 X-21.096 Y51.010 E0.0128
G1 X-21.113 Y51.002 E0.0017
G1 X-24.108 Y49.657 E0.2948
G1 X-24.125 Y49.649 E0.0017
G1 X-24.252 Y49.587 E0.0127
G1 X-24.268 Y49.579 E0.0017
G1 X-27.063 Y48.110 E0.2835
G1 X-27.079 Y48.101 E0.0017
G1 X-27.203 Y48.032 E0.0127
G1 X-27.219 Y48.022 E0.0017
G1 X-30.025 Y46.319 E0.2948
G1 X-30.041 Y46.310 E0.0017
G1 X-30.160 Y46.232 E0.0128
G1 X-30.176 Y46.222 E0.0017
G1 X-32.795 Y44.402 E0.2864
G1 X-32.810 Y44.391 E0.0017
G1 X-32.923 Y44.307 E0.0127
G1 X-32.938 Y44.296 E0.0017
G1 X-35.489 Y42.280 E0.2920
G1 X-35.503 Y42.268 E0.0017
G1 X-35.611 Y42.177 E0.0127
G1 X-35.625 Y42.165 E0.0016
G1 X-37.977 Y40.060 E0.2835
G1 X-37.991 Y40.047 E0.0017
G1 X-38.094 Y39.948 E0.0128
G1 X-38.108 Y39.935 E0.0017
G1 X-40.458 Y37.552 E0.3005
G1 X-40.471 Y37.539 E0.0017
G1 X-40.567 Y37.435 E0.0128
G1 X-40.580 Y37.421 E0.0017
G1 X-42.633 Y35.064 E0.2807
G1 X-42.644 Y35.050 E0.0016
G1 X-42.733 Y34.942 E0.0126
G1 X-42.744 Y34.927 E0.0016
G1 X-44.727 Y32.351 E0.2919
G1 X-44.738 Y32.336 E0.0017
G1 X-44.821 Y32.220 E0.0128
G1 X-44.832 Y32.205 E0.0017
G1 X-46.633 Y29.536 E0.2892
G1 X-46.643 Y29.521 E0.0017
G1 X-46.718 Y29.402 E0.0127
G1 X-46.728 Y29.386 E0.0017
G1 X-48.347 Y26.638 E0.2864
G1 X-48.356 Y26.622 E0.0017
G1 X-48.425 Y26.497 E0.0128
G1 X-48.434 Y26.480 E0.0017
G1 X-49.936 Y23.524 E0.2978
G1 X-49.945 Y23.507 E0.0017
G1 X-50.006 Y23.376 E0.0130
G1 X-50.014 Y23.359 E0.0017
G1 X-51.303 Y20.371 E0.2923
G1 X-51.311 Y20.354 E0.0017
G1 X-51.364 Y20.218 E0.0130
G1 X-51.371 Y20.201 E0.0017
G1 X-52.501 Y17.047 E0.3008
G1 X-52.508 Y17.029 E0.0017
G1 X-52.553 Y16.890 E0.0132
G1 X-52.558 Y16.871 E0.0017
G1 X-53.477 Y13.683 E0.2980
G1 X-53.482 Y13.664 E0.0017
G1 X-53.518 Y13.524 E0.0130
G1 X-53.522 Y13.505 E0.0017
G1 X-54.231 Y10.298 E0.2950
G1 X-54.234 Y10.280 E0.0017
G1 X-54.261 Y10.140 E0.0128
G1 X-54.264 Y10.121 E0.0017
G1 X-54.758 Y6.972 E0.2863
G1 X-54.760 Y6.954 E0.0016
G1 X-54.778 Y6.814 E0.0126
G1 X-54.780 Y6.796 E0.0016
G1 X-55.081 Y3.624 E0.2862
G1 X-55.082 Y3.605 E0.0016
G1 X-55.091 Y3.465 E0.0126
G1 X-55.092 Y3.447 E0.0016
G1 X-55.199 Y0.263 E0.2861
G1 X-55.200 Y0.244 E0.0016
G1 X-55.200 Y0.106 E0.0125
G1 X-55.200 Y0.088 E0.0016
G1 X-55.116 Y-3.034 E0.2804
G1 X-55.116 Y-3.052 E0.0016
G1 X-55.108 Y-3.191 E0.0125
G1 X-55.106 Y-3.209 E0.0016
G1 X-54.830 Y-6.383 E0.2861
G1 X-54.828 Y-6.401 E0.0016
G1 X-54.811 Y-6.540 E0.0126
G1 X-54.809 Y-6.559 E0.0016
G1 X-54.339 Y-9.710 E0.2862
G1 X-54.336 Y-9.728 E0.0016
G1 X-54.311 Y-9.866 E0.0125
G1 X-54.308 Y-9.883 E0.0016
G1 X-53.654 Y-12.970 E0.2834
G1 X-53.650 Y-12.988 E0.0016
G1 X-53.617 Y-13.124 E0.0126
G1 X-53.613 Y-13.142 E0.0016
G1 X-52.756 Y-16.244 E0.2890
G1 X-52.750 Y-16.261 E0.0016
G1 X-52.709 Y-16.395 E0.0125
G1 X-52.704 Y-16.412 E0.0016
G1 X-51.690 Y-19.369 E0.2807
G1 X-51.684 Y-19.387 E0.0017
G1 X-51.633 Y-19.521 E0.0129
G1 X-51.626 Y-19.538 E0.0017
G1 X-50.321 Y-22.690 E0.3063
G1 X-50.313 Y-22.707 E0.0017
G1 X-50.253 Y-22.840 E0.0130
G1 X-50.245 Y-22.857 E0.0017
G1 X-48.841 Y-25.721 E0.2865
G1 X-48.833 Y-25.738 E0.0017
G1 X-48.767 Y-25.862 E0.0127
G1 X-48.758 Y-25.878 E0.0016
G1 X-47.166 Y-28.677 E0.2892
G1 X-47.157 Y-28.693 E0.0017
G1 X-47.083 Y-28.815 E0.0128
G1 X-47.073 Y-28.830 E0.0017
G1 X-45.293 Y-31.553 E0.2921
G1 X-45.282 Y-31.568 E0.0017
G1 X-45.200 Y-31.686 E0.0129
G1 X-45.189 Y-31.701 E0.0017
G1 X-43.223 Y-34.333 E0.2950
G1 X-43.212 Y-34.348 E0.0017
G1 X-43.123 Y-34.460 E0.0129
G1 X-43.111 Y-34.474 E0.0017
G1 X-41.027 Y-36.930 E0.2893
G1 X-41.014 Y-36.944 E0.0017
G1 X-40.918 Y-37.050 E0.0128
G1 X-40.906 Y-37.064 E0.0017
G1 X-38.629 Y-39.431 E0.2949
G1 X-38.616 Y-39.444 E0.0017
G1 X-38.514 Y-39.544 E0.0128
G1 X-38.501 Y-39.556 E0.0017
G1 X-36.153 Y-41.713 E0.2863
G1 X-36.139 Y-41.726 E0.0017
G1 X-36.032 Y-41.818 E0.0127
G1 X-36.018 Y-41.830 E0.0016
G1 X-33.517 Y-43.859 E0.2892
G1 X-33.503 Y-43.870 E0.0017
G1 X-33.388 Y-43.957 E0.0129
G1 X-33.373 Y-43.969 E0.0017
G1 X-30.674 Y-45.893 E0.2977
G1 X-30.658 Y-45.903 E0.0017
G1 X-30.541 Y-45.982 E0.0127
G1 X-30.525 Y-45.992 E0.0017
G1 X-27.873 Y-47.646 E0.2807
G1 X-27.857 Y-47.655 E0.0017
G1 X-27.736 Y-47.726 E0.0127
G1 X-27.720 Y-47.735 E0.0016
G1 X-24.833 Y-49.299 E0.2948
G1 X-24.816 Y-49.307 E0.0017
G1 X-24.688 Y-49.371 E0.0129
G1 X-24.671 Y-49.380 E0.0017
G1 X-21.750 Y-50.734 E0.2892
G1 X-21.733 Y-50.742 E0.0017
G1 X-21.603 Y-50.797 E0.0127
G1 X-21.585 Y-50.804 E0.0017
G1 X-18.587 Y-51.976 E0.2891
G1 X-18.570 Y-51.983 E0.0016
G1 X-18.438 Y-52.030 E0.0126
G1 X-18.421 Y-52.036 E0.0016
G1 X-15.417 Y-53.003 E0.2834
G1 X-15.399 Y-53.009 E0.0016
G1 X-15.264 Y-53.048 E0.0127
G1 X-15.246 Y-53.053 E0.0017
G1 X-12.096 Y-53.858 E0.2920
G1 X-12.078 Y-53.862 E0.0017
G1 X-11.939 Y-53.893 E0.0128
G1 X-11.921 Y-53.897 E0.0017
G1 X-8.758 Y-54.501 E0.2891
G1 X-8.740 Y-54.504 E0.0016
G1 X-8.602 Y-54.526 E0.0126
G1 X-8.584 Y-54.528 E0.0016
G1 X-5.453 Y-54.930 E0.2834
G1 X-5.435 Y-54.932 E0.0017
G1 X-5.295 Y-54.946 E0.0127
G1 X-5.277 Y-54.947 E0.0016
G1 X-2.033 Y-55.162 E0.2919
G1 X-2.015 Y-55.163 E0.0016
G1 X-1.875 Y-55.168 E0.0126
G1 X-1.857 Y-55.169 E0.0016
G1 X1.267 Y-55.185 E0.2805
G1 X1.285 Y-55.185 E0.0016
G1 X1.423 Y-55.182 E0.0125
G1 X1.442 Y-55.181 E0.0016
G1 X4.623 Y-55.006 E0.2862
G1 X4.642 Y-55.005 E0.0017
G1 X4.782 Y-54.993 E0.0127
G1 X4.800 Y-54.991 E0.0016
G1 X7.998 Y-54.617 E0.2891
G1 X8.016 Y-54.615 E0.0016
G1 X8.156 Y-54.594 E0.0127
G1 X8.174 Y-54.591 E0.0017
G1 X11.311 Y-54.028 E0.2863
G1 X11.329 Y-54.025 E0.0017
G1 X11.467 Y-53.996 E0.0127
G1 X11.485 Y-53.992 E0.0016
G1 X14.613 Y-53.230 E0.2891
G1 X14.630 Y-53.226 E0.0016
G1 X14.765 Y-53.189 E0.0126
G1 X14.783 Y-53.183 E0.0016
G1 X17.798 Y-52.252 E0.2834
G1 X17.815 Y-52.246 E0.0016
G1 X17.947 Y-52.201 E0.0125
G1 X17.964 Y-52.195 E0.0016
G1 X20.947 Y-51.071 E0.2863
G1 X20.964 Y-51.064 E0.0017
G1 X21.096 Y-51.010 E0.0128
G1 X21.113 Y-51.002 E0.0017
G1 X24.108 Y-49.657 E0.2948
G1 X24.125 Y-49.649 E0.0017
G1 X24.252 Y-49.587 E0.0127
G1 X24.268 Y-49.579 E0.0017
G1 X27.063 Y-48.110 E0.2835
G1 X27.079 Y-48.101 E0.0017
G1 X27.203 Y-48.032 E0.0127
G1 X27.219 Y-48.022 E0.0017
G1 X30.025 Y-46.319 E0.2948
G1 X30.041 Y-46.310 E0.0017
G1 X30.160 Y-46.232 E0.0128
G1 X30.176 Y-46.222 E0.0017
G1 X32.795 Y-44.402 E0.2864
G1 X32.810 Y-44.391 E0.0017
G1 X32.923 Y-44.307 E0.0127
G1 X32.938 Y-44.296 E0.0017
G1 X35.489 Y-42.280 E0.2920
G1 X35.503 Y-42.268 E0.0017
G1 X35.611 Y-42.177 E0.0127
G1 X35.625 Y-42.165 E0.0016
G1 X37.977 Y-40.060 E0.2835
G1 X37.991 Y-40.047 E0.0017
G1 X38.094 Y-39.948 E0.0128
G1 X38.108 Y-39.935 E0.0017
G1 X40.458 Y-37.552 E0.3005
G1 X40.471 Y-37.539 E0.0017
G1 X40.567 Y-37.435 E0.0128
G1 X40.580 Y-37.421 E0.0017
G1 X42.633 Y-35.064 E0.2807
G1 X42.644 Y-35.050 E0.0016
G1 X42.733 Y-34.942 E0.0126
G1 X42.744 Y-34.927 E0.0016
G1 X44.727 Y-32.351 E0.2919
G1 X44.738 Y-32.336 E0.0017
G1 X44.821 Y-32.220 E0.0128
G1 X44.832 Y-32.205 E0.0017
G1 X46.633 Y-29.536 E0.2892
G1 X46.643 Y-29.521 E0.0017
G1 X46.718 Y-29.402 E0.0127
G1 X46.728 Y-29.386 E0.0017
G1 X48.347 Y-26.638 E0.2864
G1 X48.356 Y-26.622 E0.0017
G1 X48.425 Y-26.497 E0.0128
G1 X48.434 Y-26.480 E0.0017
G1 X49.936 Y-23.524 E0.2978
G1 X49.945 Y-23.507 E0.0017
G1 X50.006 Y-23.376 E0.0130
G1 X50.014 Y-23.359 E0.0017
G1 X51.303 Y-20.371 E0.2923
G1 X51.311 Y-20.354 E0.0017
G1 X51.364 Y-20.218 E0.0130
G1 X51.371 Y-20.201 E0.0017
G1 X52.501 Y-17.047 E0.3008
G1 X52.508 Y-17.029 E0.0017
G1 X52.553 Y-16.890 E0.0132
G1 X52.558 Y-16.871 E0.0017
G1 X53.477 Y-13.683 E0.2980
G1 X53.482 Y-13.664 E0.0017
